X:1
T:James Gibb editions
T:Donne leggiadre - Antonelli da Rimini
%%score [ 1 2 3 ]
L:1/8
Q:1/4=100
M:2/2
K:C
V:1 treble nm="Alto" snm="A"
V:2 treble-8 nm="Tenor" snm="T"
V:3 bass nm="Bass" snm="B"
V:1
"^Donne leggiadre""^Cornelio Antonelli da Rimini\n(C16th)" E4 E2 E2 | E4 F4 | E4 G4 | F2 F2 E4 | %4
w: Don- ne leg-|gia- dre|voi va-|ghe ci- tel-|
w: E~~voi don- ne|che~~an- da-|te a|tro- var fuo-|
 E8 | z2 A2 A2 A2 |[M:2/2] A2 A2 A4- | A2 A2 G2 F2 | G4 A4 | G4 G2 G2 | G6 G2 | G2 A2 F2 G2 | %12
w: le|Che gi- te~~ad|em- pir d'ac\-|* qua le lan-|cel- le|Deh non an-|da- te~~a|riv' a font' o~~a|
w: co|Mat- ti- na~~e|se- ra d'un|* in al- tro|luo- co|Deh per pie-|tà ve-|ni- te~~a que- sto|
 E4 E4 | A4 F4 | E2 D4 E2 | D4 E2 F2- | F2 G2 E4 | ^F8 :| %18
w: fiu- mi|Ma que-|sti tri- sti|tuoi cor- ren\-|* ti lu-|mi.|
w: co- re|Che tro-|va- re- te|fuo- co fiam\-|* m'ar- do-|re.|
V:2
 ^c4 c2 c2 | ^c4 d4 | ^c4 B4 | c2 d2 ^c4 | ^c8 | z2 f2 f2 f2 |[M:2/2][K:treble-8] f2 f2 f4- | %7
w: Don- ne leg-|gia- dre|voi va-|ghe ci- tel-|le|Che gi- te~~ad|em- pir d'ac\-|
w: E~~voi don- ne|che~~an- da-|te a|tro- var fuo-|co|Mat- ti- na~~e|se- ra d'un|
 f2 f2 e2 f2 | (f2 e2) f4 | e4 e2 e2 | e6 e2 | e2 f2 d2 d2 | ^c4 c4 | f4 d4 | c2 B4 c2 | %15
w: * qua le lan-|cel\- * le|Deh non an-|da- te~~a|riv' a font' o~~a|fiu- mi|Ma que-|sti tri- sti|
w: * in al- tro|luo\- * co|Deh per pie-|tà ve-|ni- te~~a que- sto|co- re|Che tro-|va- re- te|
 B4 c2 d2- | d2 d2 ^c4 | d8 :| %18
w: tuoi cor- ren\-|* ti lu-|mi.|
w: fuo- co fiam\-|* m'ar- do-|re.|
V:3
 A,4 A,2 A,2 | A,4 D,4 | A,4 E,4 | F,2 D,2 A,4 | A,8 | z2 D,2 D,2 D,2 |[M:2/2] D,2 D,2 D,4- | %7
w: Don- ne leg-|gia- dre|voi va-|ghe ci- tel-|le|Che gi- te~~ad|em- pir d'ac\-|
w: E~~voi don- ne|che~~an- da-|te a|tro- var fuo-|co|Mat- ti- na~~e|se- ra d'un|
 D,2 D,2 C,2 D,2 | C,4 D,4 | C,4 C2 C2 | C6 C2 | C2 D2 _B,2 B,2 | A,4 A,4 | D,4 _B,4 | %14
w: * qua le lan-|cel- le|Deh non an-|da- te~~a|riv' a font' o~~a|fiu- mi|Ma que-|
w: * in al- tro|luo- co|Deh per pie-|tà ve-|ni- te~~a que- sto|co- re|Che tro-|
 A,2 G,4 A,2 | G,4 A,2 _B,2- | B,2 G,2 A,4 | D,8 :| %18
w: sti tri- sti|tuoi cor- ren\-|* ti lu-|mi.|
w: va- re- te|fuo- co fiam\-|* m'ar- do-|re.|

